Numix-Light/16/status/indicator-keyboard-Ku-9.svg

<?xml version="1.0" encoding="UTF-8" standalone="no"?>
<svg
   xmlns:dc="http://purl.org/dc/elements/1.1/"
   xmlns:cc="http://creativecommons.org/ns#"
   xmlns:rdf="http://www.w3.org/1999/02/22-rdf-syntax-ns#"
   xmlns:svg="http://www.w3.org/2000/svg"
   xmlns="http://www.w3.org/2000/svg"
   xmlns:sodipodi="http://sodipodi.sourceforge.net/DTD/sodipodi-0.dtd"
   xmlns:inkscape="http://www.inkscape.org/namespaces/inkscape"
   viewBox="0 0 16 16"
   id="svg2"
   version="1.1"
   inkscape:version="0.91 r13725"
   sodipodi:docname="indicator-keyboard-Ku-9.svg">
  <metadata
     id="metadata14">
    <rdf:RDF>
      <cc:Work
         rdf:about="">
        <dc:format>image/svg+xml</dc:format>
        <dc:type
           rdf:resource="http://purl.org/dc/dcmitype/StillImage" />
      </cc:Work>
    </rdf:RDF>
  </metadata>
  <defs
     id="defs12" />
  <sodipodi:namedview
     pagecolor="#ffffff"
     bordercolor="#666666"
     borderopacity="1"
     objecttolerance="10"
     gridtolerance="10"
     guidetolerance="10"
     inkscape:pageopacity="0"
     inkscape:pageshadow="2"
     inkscape:window-width="459"
     inkscape:window-height="369"
     id="namedview10"
     showgrid="false"
     inkscape:zoom="14.75"
     inkscape:cx="8"
     inkscape:cy="8"
     inkscape:window-x="65"
     inkscape:window-y="24"
     inkscape:window-maximized="0"
     inkscape:current-layer="svg2" />
  <path
     style="fill:#353535;fill-opacity:1"
     d="M 1.5996094 0 C 0.71320937 2.9605947e-16 0 0.71320937 0 1.5996094 L 0 14.400391 C 2.9605947e-16 15.286791 0.71320937 16 1.5996094 16 L 14.400391 16 C 15.286791 16 16 15.286791 16 14.400391 L 16 1.5996094 C 16 0.71320937 15.286791 0 14.400391 0 L 1.5996094 0 z M 1.7167969 4.859375 L 2.328125 4.859375 L 2.328125 7.765625 C 2.556125 7.561625 2.8079844 7.3284531 3.0839844 7.0644531 C 3.3659844 6.7944531 3.6421094 6.5239062 3.9121094 6.2539062 C 4.1881094 5.9839063 4.4455469 5.7264687 4.6855469 5.4804688 C 4.9255469 5.2344688 5.1177188 5.027375 5.2617188 4.859375 L 6 4.859375 C 5.826 5.045375 5.6151406 5.2673906 5.3691406 5.5253906 C 5.1231406 5.7773906 4.8619375 6.0385937 4.5859375 6.3085938 C 4.3099375 6.5785938 4.0357656 6.845375 3.7597656 7.109375 C 3.4897656 7.367375 3.2452969 7.5949688 3.0292969 7.7929688 C 3.2032969 7.9009687 3.3898906 8.0352656 3.5878906 8.1972656 C 3.7918906 8.3532656 3.9952187 8.5287031 4.1992188 8.7207031 C 4.4092188 8.9067031 4.6145 9.1044531 4.8125 9.3144531 C 5.0165 9.5184531 5.2049063 9.7255469 5.3789062 9.9355469 C 5.5589062 10.145547 5.7174688 10.348875 5.8554688 10.546875 C 5.9994688 10.744875 6.1170312 10.927703 6.2070312 11.095703 L 5.5234375 11.095703 C 5.3194375 10.783703 5.0880781 10.475922 4.8300781 10.169922 C 4.5780781 9.8639217 4.3112969 9.5746875 4.0292969 9.3046875 C 3.7472969 9.0346875 3.4580625 8.7884063 3.1640625 8.5664062 C 2.8760625 8.3444062 2.598125 8.1597656 2.328125 8.0097656 L 2.328125 11.095703 L 1.7167969 11.095703 L 1.7167969 4.859375 z M 7.0214844 6.4433594 L 7.6074219 6.4433594 L 7.6074219 8.8632812 C 7.6074219 9.1932813 7.6316875 9.4731719 7.6796875 9.7011719 C 7.7276875 9.9291721 7.8060625 10.115766 7.9140625 10.259766 C 8.0220625 10.397766 8.160125 10.498453 8.328125 10.564453 C 8.502125 10.624453 8.7110313 10.654297 8.9570312 10.654297 C 9.2330312 10.654297 9.4737344 10.639375 9.6777344 10.609375 C 9.8817344 10.579375 10.010453 10.553297 10.064453 10.529297 L 10.064453 6.4433594 L 10.648438 6.4433594 L 10.648438 10.933594 C 10.474437 10.981594 10.241266 11.035703 9.9472656 11.095703 C 9.6532656 11.155703 9.2931875 11.185547 8.8671875 11.185547 C 8.5191875 11.185547 8.2281406 11.135203 7.9941406 11.033203 C 7.7601406 10.931203 7.5717344 10.787563 7.4277344 10.601562 C 7.2837344 10.415563 7.1792812 10.189781 7.1132812 9.9257812 C 7.0532813 9.6617812 7.0214844 9.3707344 7.0214844 9.0527344 L 7.0214844 6.4433594 z M 12.986328 8.7539062 C 13.411428 8.7539062 13.732772 8.9047781 13.951172 9.2050781 C 14.173472 9.5014781 14.283203 9.9168718 14.283203 10.451172 C 14.283203 11.266272 14.089219 11.879569 13.699219 12.292969 C 13.309219 12.702469 12.739034 12.908203 11.990234 12.908203 L 11.978516 12.591797 C 12.235916 12.591797 12.473 12.562406 12.6875 12.503906 C 12.902 12.445406 13.086187 12.355275 13.242188 12.234375 C 13.402087 12.109575 13.531406 11.952819 13.628906 11.761719 C 13.730306 11.566719 13.798884 11.331594 13.833984 11.058594 C 13.728684 11.113194 13.601325 11.162178 13.453125 11.205078 C 13.304925 11.244078 13.148169 11.263672 12.980469 11.263672 C 12.762069 11.263672 12.575928 11.230363 12.423828 11.164062 C 12.271728 11.093863 12.148288 11.001772 12.054688 10.888672 C 11.961088 10.775572 11.892509 10.646247 11.849609 10.498047 C 11.806709 10.349847 11.787109 10.195056 11.787109 10.035156 C 11.787109 9.8869562 11.808669 9.7360844 11.855469 9.5839844 C 11.902269 9.4318844 11.974766 9.2966812 12.072266 9.1757812 C 12.173666 9.0509812 12.299066 8.9490938 12.447266 8.8710938 C 12.599366 8.7930937 12.779628 8.7539062 12.986328 8.7539062 z M 12.992188 9.0878906 C 12.847887 9.0878906 12.724447 9.1153219 12.623047 9.1699219 C 12.521647 9.2206219 12.439353 9.2892 12.376953 9.375 C 12.314553 9.4608 12.267528 9.5587751 12.236328 9.671875 C 12.209028 9.784975 12.195313 9.9025374 12.195312 10.023438 C 12.195312 10.331537 12.263891 10.560784 12.400391 10.708984 C 12.540791 10.857184 12.746525 10.929687 13.015625 10.929688 C 13.195025 10.929688 13.349822 10.910094 13.482422 10.871094 C 13.618922 10.828194 13.746281 10.781163 13.863281 10.726562 C 13.867215 10.679762 13.869141 10.634697 13.869141 10.591797 C 13.873007 10.548897 13.875 10.499912 13.875 10.445312 C 13.875 10.262013 13.861284 10.087628 13.833984 9.9238281 C 13.810584 9.7600281 13.763559 9.6169874 13.693359 9.4921875 C 13.627059 9.3673875 13.536928 9.2694188 13.423828 9.1992188 C 13.310728 9.1251188 13.167687 9.0878906 12.992188 9.0878906 z "
     id="path4" />
</svg>

<svg xmlns="http://www.w3.org/2000/svg" viewBox="0 0 16 16">
 <path d="m 1.6 0 c -0.886 0 -1.6 0.713 -1.6 1.6 l 0 12.801 c 0 0.886 0.713 1.6 1.6 1.6 l 12.801 0 c 0.886 0 1.6 -0.713 1.6 -1.6 l 0 -12.801 c 0 -0.886 -0.713 -1.6 -1.6 -1.6 l -12.801 0 z m 0.117 4.859 l 0.611 0 l 0 2.906 c 0.228 -0.204 0.48 -0.437 0.756 -0.701 c 0.282 -0.27 0.558 -0.541 0.828 -0.811 c 0.276 -0.27 0.533 -0.527 0.773 -0.773 c 0.24 -0.246 0.432 -0.453 0.576 -0.621 l 0.738 0 c -0.174 0.186 -0.385 0.408 -0.631 0.666 c -0.246 0.252 -0.507 0.513 -0.783 0.783 c -0.276 0.27 -0.55 0.537 -0.826 0.801 c -0.27 0.258 -0.514 0.486 -0.73 0.684 c 0.174 0.108 0.361 0.242 0.559 0.404 c 0.204 0.156 0.407 0.331 0.611 0.523 c 0.21 0.186 0.415 0.384 0.613 0.594 c 0.204 0.204 0.392 0.411 0.566 0.621 c 0.18 0.21 0.339 0.413 0.477 0.611 c 0.144 0.198 0.262 0.381 0.352 0.549 l -0.684 0 c -0.204 -0.312 -0.435 -0.62 -0.693 -0.926 c -0.252 -0.306 -0.519 -0.595 -0.801 -0.865 c -0.282 -0.27 -0.571 -0.516 -0.865 -0.738 c -0.288 -0.222 -0.566 -0.407 -0.836 -0.557 l 0 3.086 l -0.611 0 l 0 -6.236 z m 5.305 1.584 l 0.586 0 l 0 2.42 c 0 0.33 0.024 0.61 0.072 0.838 c 0.048 0.228 0.126 0.415 0.234 0.559 c 0.108 0.138 0.246 0.239 0.414 0.305 c 0.174 0.06 0.383 0.09 0.629 0.09 c 0.276 0 0.517 -0.015 0.721 -0.045 c 0.204 -0.03 0.333 -0.056 0.387 -0.08 l 0 -4.086 l 0.584 0 l 0 4.49 c -0.174 0.048 -0.407 0.102 -0.701 0.162 c -0.294 0.06 -0.654 0.09 -1.08 0.09 c -0.348 0 -0.639 -0.05 -0.873 -0.152 c -0.234 -0.102 -0.422 -0.246 -0.566 -0.432 c -0.144 -0.186 -0.248 -0.412 -0.314 -0.676 c -0.06 -0.264 -0.092 -0.555 -0.092 -0.873 l 0 -2.609 z m 5.965 2.311 c 0.425 0 0.746 0.151 0.965 0.451 c 0.222 0.296 0.332 0.712 0.332 1.246 c 0 0.815 -0.194 1.428 -0.584 1.842 c -0.39 0.41 -0.96 0.615 -1.709 0.615 l -0.012 -0.316 c 0.257 0 0.494 -0.029 0.709 -0.088 c 0.214 -0.059 0.399 -0.149 0.555 -0.27 c 0.16 -0.125 0.289 -0.282 0.387 -0.473 c 0.101 -0.195 0.17 -0.43 0.205 -0.703 c -0.105 0.055 -0.233 0.104 -0.381 0.146 c -0.148 0.039 -0.305 0.059 -0.473 0.059 c -0.218 0 -0.405 -0.033 -0.557 -0.1 c -0.152 -0.07 -0.276 -0.162 -0.369 -0.275 c -0.094 -0.113 -0.162 -0.242 -0.205 -0.391 c -0.043 -0.148 -0.063 -0.303 -0.063 -0.463 c 0 -0.148 0.022 -0.299 0.068 -0.451 c 0.047 -0.152 0.119 -0.287 0.217 -0.408 c 0.101 -0.125 0.227 -0.227 0.375 -0.305 c 0.152 -0.078 0.332 -0.117 0.539 -0.117 z m 0.006 0.334 c -0.144 0 -0.268 0.027 -0.369 0.082 c -0.101 0.051 -0.184 0.119 -0.246 0.205 c -0.062 0.086 -0.109 0.184 -0.141 0.297 c -0.027 0.113 -0.041 0.231 -0.041 0.352 c 0 0.308 0.069 0.537 0.205 0.686 c 0.14 0.148 0.346 0.221 0.615 0.221 c 0.179 0 0.334 -0.02 0.467 -0.059 c 0.136 -0.043 0.264 -0.09 0.381 -0.145 c 0.004 -0.047 0.006 -0.092 0.006 -0.135 c 0.004 -0.043 0.006 -0.092 0.006 -0.146 c 0 -0.183 -0.014 -0.358 -0.041 -0.521 c -0.023 -0.164 -0.07 -0.307 -0.141 -0.432 c -0.066 -0.125 -0.156 -0.223 -0.27 -0.293 c -0.113 -0.074 -0.256 -0.111 -0.432 -0.111 z" style="fill:#353535;fill-opacity:1"/>
</svg>
